X:1
T:Bolzano, 10.10.10.10.84
T:Bolzano, 10.10.10.10.84
T:Anthony Johnson Showalter, 1922
T:Public Domain Courtesy of the Cyber Hymnal™
C:Anthony Johnson Showalter, 1922
Z:Public Domain
Z:Courtesy of the Cyber Hymnal™
%%score ( 1 2 ) ( 3 4 )
L:1/8
Q:1/4=115
M:4/4
K:Eb
V:1 treble 
V:2 treble 
V:3 bass 
V:4 bass 
V:1
 (EF) | [EG]4 [DB]4 | [EB]6 [EB]2 | [Ec]2 ([Ec][Ec]) [EB]2 [DA]2 | [EG]6 z2 | [FB]4 [EG]2 [DA]2 | %6
 B4 B4 | [CE]2 [CE]2 [CF]2 [EG]2 | [DF]8 | [EG]4 [FG]2 [FG]2 | [Ec]6 [=Ec]2 | F2 F2 [EG]2 [E=A]2 | %12
 [DB]6 [DB]2 | [EB]4 [FB]4 | [Ec]4 [_DG]4 | [CA]2 [EA]2 E2 [CF]2 | [EG]6 [DA]2 | %17
 [EG]2 [DF]2 E2 [Ec]2 | [EB]2 [DG]2 [CE]2 [EF]2 | [EG]4 [DF]4 | E6 |] %21
V:2
 B,2 | x8 | x8 | x8 | x8 | x8 | (E2 D2) (E2 B,2) | x8 | x8 | x8 | x8 | F2 F2 x4 | x8 | x8 | x8 | %15
 x4 E2 x2 | x8 | x4 E2 x2 | x8 | x8 | E6 |] %21
V:3
 ([E,G,][D,F,]) | [C,E,]4 [B,,F,]4 | [E,G,]6 [E,G,]2 | A,2 A,A, [G,B,]2 [F,B,]2 | [E,B,]6 z2 | %5
 [D,B,]4 [E,B,]2 [F,B,]2 | ([G,B,]2 [F,A,]2) ([E,G,]2 [D,F,]2) | [C,G,]2 [C,G,]2 [F,=A,]2 [F,A,]2 | %8
 [B,,B,]8 | [E,B,]4 [D,=B,]2 [D,B,]2 | (C2 G,4) [C,B,]2 | [F,=A,]2 [F,A,]2 [F,B,]2 [F,C]2 | %12
 [G,B,]6 [F,A,]2 | [E,G,]4 [D,F,]4 | [C,G,]4 [B,,E,]4 | [A,,E,]2 [A,,C]2 [A,C]2 [A,C]2 | %16
 [G,=B,]6 [F,_B,]2 | [E,B,]2 [C,A,]2 [C,G,]2 [A,,A,]2 | [G,,B,]2 [G,,B,]2 [C,G,]2 [A,,C]2 | %19
 [B,,B,]4 [B,,A,]4 | [E,G,]6 |] %21
V:4
 x2 | x8 | x8 | A,2 (A,A,) x4 | x8 | x8 | x8 | x8 | x8 | x8 | C,6 x2 | x8 | x8 | x8 | x8 | x8 | %16
 x8 | x8 | x8 | x8 | x6 |] %21

